X: 1
T: Candidate, The
M: 4/4
L: 1/8
R: hornpipe
K: Dmaj
AG|:(3FED FA d2 AB|(3=cBA GB AF DG|(3FED FA d2 fg|afdf e2 AG|
(3FED FA d2 AB|(3=cBA GB AF Dd|fedB ABAG|1 F2D2 D2 AG:|2 F2D2 D2 ag||
|:fd (3ddd fdad|fd (3ddd a2 ef|(3ggg gf efed|(3ccc cB ABAG|
(3FED FA d2 AB|(3=cBA GBAF Dd|fedB ABAG|1 F2D2 D2 ag:|2F2D2D2 AG||
